Numix-Square/48/apps/steam_icon_221910.svg

<svg version="1.1" viewBox="0 0 48 48" xmlns="http://www.w3.org/2000/svg" xmlns:xlink="http://www.w3.org/1999/xlink">
 <defs>
  <linearGradient id="bg" x2="0" y1="1" y2="47" gradientUnits="userSpaceOnUse">
   <stop stop-color="#2b1d1e" style="stop-color:#493133" offset="0"/>
   <stop stop-color="#1f1516" style="stop-color:#3d292b" offset="1"/>
  </linearGradient>
  <linearGradient id="linearGradient861" x2="0" y1="1" y2="47" gradientUnits="userSpaceOnUse">
   <stop stop-color="#2b1d1e" style="stop-color:#55393b" offset="0"/>
   <stop stop-color="#1f1516" style="stop-color:#493133" offset="1"/>
  </linearGradient>
 </defs>
 <path d="m1 43v0.25c0 2.216 1.784 4 4 4h38c2.216 0 4-1.784 4-4v-0.25c0 2.216-1.784 4-4 4h-38c-2.216 0-4-1.784-4-4zm0 0.5v0.5c0 2.216 1.784 4 4 4h38c2.216 0 4-1.784 4-4v-0.5c0 2.216-1.784 4-4 4h-38c-2.216 0-4-1.784-4-4z" opacity=".02"/>
 <path d="m1 43.25v0.25c0 2.216 1.784 4 4 4h38c2.216 0 4-1.784 4-4v-0.25c0 2.216-1.784 4-4 4h-38c-2.216 0-4-1.784-4-4z" opacity=".05"/>
 <path d="m1 43v0.25c0 2.216 1.784 4 4 4h38c2.216 0 4-1.784 4-4v-0.25c0 2.216-1.784 4-4 4h-38c-2.216 0-4-1.784-4-4z" opacity=".1"/>
 <rect x="1" y="1" width="46" height="46" rx="4" fill="url(#bg)" style="fill:url(#linearGradient861)"/>
 <path d="m1 39v4c0 2.216 1.784 4 4 4h38c2.216 0 4-1.784 4-4v-4c0 2.216-1.784 4-4 4h-38c-2.216 0-4-1.784-4-4z" opacity=".1"/>
 <path d="m16 10h16l1 3-5 4-1-1-1 1 1 7v13l-3 2-3-2v-13l1-7-1-1-1 1-5-4z" opacity=".1"/>
 <g transform="translate(0 -1)">
  <path d="m16 10h16l-8 4z" fill="#999"/>
  <path d="m22 17-1 7v13l3 2 3-2v-13l-1-7-2-1z" fill="#e11"/>
  <path d="m22 17-3-3 5-2 5 2-3 3z" fill="#c11"/>
  <path d="m24 12 8-2 1 3-5 4-4-4-4 4-5-4 1-3z" fill="#eee"/>
 </g>
</svg>

<svg version="1.1" viewBox="0 0 48 48" xmlns="http://www.w3.org/2000/svg">
	<defs>
		<linearGradient id="bg" gradientUnits="userSpaceOnUse" x1="0" x2="0" y1="1" y2="47">
			<stop offset="0" stop-color="#2b1d1e"/>
			<stop offset="1" stop-color="#1f1516"/>
		</linearGradient>
	</defs>
	<path opacity=".02" d="m1 43v0.25c0 2.216 1.784 4 4 4h38c2.216 0 4-1.784 4-4v-0.25c0 2.216-1.784 4-4 4h-38c-2.216 0-4-1.784-4-4zm0 0.5v0.5c0 2.216 1.784 4 4 4h38c2.216 0 4-1.784 4-4v-0.5c0 2.216-1.784 4-4 4h-38c-2.216 0-4-1.784-4-4z"/>
	<path opacity=".05" d="m1 43.25v0.25c0 2.216 1.784 4 4 4h38c2.216 0 4-1.784 4-4v-0.25c0 2.216-1.784 4-4 4h-38c-2.216 0-4-1.784-4-4z"/>
	<path opacity=".1" d="m1 43v0.25c0 2.216 1.784 4 4 4h38c2.216 0 4-1.784 4-4v-0.25c0 2.216-1.784 4-4 4h-38c-2.216 0-4-1.784-4-4z"/>
	<rect fill="url(#bg)" rx="4" height="46" width="46" y="1" x="1"/>
	<path opacity=".1" d="m1 39v4c0 2.216 1.784 4 4 4h38c2.216 0 4-1.784 4-4v-4c0 2.216-1.784 4-4 4h-38c-2.216 0-4-1.784-4-4z"/>
	<path d="M 16,10 32,10 33,13 28,17 27,16 26,17 27,24 27,37 24,39 21,37 21,24 22,17 21,16 20,17 15,13 Z" opacity=".1"/>
	<g transform="translate(0 -1)">
		<path d="M 16,10 32,10 24,14 Z" fill="#999"/>
		<path d="M 22,17 21,24 21,37 24,39 27,37 27,24 26,17 24,16 Z" fill="#e11"/>
		<path d="M 22,17 19,14 24,12 29,14 26,17 Z" fill="#c11"/>
		<path d="M 24,12 32,10 33,13 28,17 24,13 20,17 15,13 16,10 Z" fill="#eee"/>
	</g>
</svg>
